dist/svg/rocket.svg

<!-- Generated by Trend Micro Style Portal -->
<svg version="1.1" xmlns="http://www.w3.org/2000/svg" width="16" height="16" viewBox="0 0 16 16">
  <title>rocket</title>
  <path fill="rgb(34,34,34)" d="M1.5 14.5s-0.7-0.8 0.7-3.5c0 0-2.2 1-2.2 5 4 0 5-2.2 5-2.2-2.8 1.4-3.5 0.7-3.5 0.7zM8.2 2.8l-0.2 0.2c-1.024 1.186-2.011 2.491-2.912 3.858l-0.088 0.142h-3l-1.2 1.3 2.7 1.7v1.1l1.4 1.4h1.1l1.7 2.8 1.3-1.3v-3c1.509-0.989 2.814-1.976 4.049-3.041l-0.049 0.041v-0.1l0.1-0.1c2.9-2.8 2.9-7.8 2.9-7.8s-5 0-7.8 2.8zM12 6c-1.105 0-2-0.895-2-2s0.895-2 2-2c1.105 0 2 0.895 2 2v0c-0.003 1.103-0.897 1.997-2 2h-0z"></path>
</svg>

<svg width="16" height="16" viewBox="0 0 16 16" fill="rgb(34, 34, 34)" xmlns="http://www.w3.org/2000/svg"><title>rocket</title><path d="M1.5 14.5C1.5 14.5 0.8 13.7 2.2 11C2.2 11 0 12 0 16C4 16 5 13.8 5 13.8C2.2 15.2 1.5 14.5 1.5 14.5ZM8.2 2.8L8 3C6.976 4.186 5.989 5.491 5.088 6.858L5 7H2L0.8 8.3L3.5 10V11.1L4.9 12.5H6L7.7 15.3L9 14V11C10.509 10.011 11.814 9.024 13.049 7.959L13 8V7.9L13.1 7.8C16 5 16 0 16 0C16 0 11 0 8.2 2.8ZM12 6C10.895 6 10 5.105 10 4C10 2.895 10.895 2 12 2C13.105 2 14 2.895 14 4C13.997 5.103 13.103 5.997 12 6Z" fill="rgb(34, 34, 34)" fill-opacity="1.00"/></svg>
